svg_80x80/dotnet.svg

<svg viewBox="0 0 80 80" xmlns="http://www.w3.org/2000/svg">
<rect width="100%" height="100%" fill="#512BD4"/>
<path d="M10.3031 51.9989C10.0037 52.0067 9.70564 51.9544 9.42645 51.8451C9.14725 51.7358 8.89243 51.5717 8.67684 51.3623C8.46317 51.1603 8.29288 50.9164 8.17647 50.6456C8.06006 50.3748 8 50.0828 8 49.7878C8 49.4927 8.06006 49.2008 8.17647 48.9299C8.29288 48.6591 8.46317 48.4152 8.67684 48.2132C8.89058 47.9998 9.14455 47.8315 9.42384 47.7182C9.70312 47.605 10.0021 47.5491 10.3031 47.5538C10.6061 47.5476 10.9072 47.6027 11.1885 47.716C11.4698 47.8293 11.7256 47.9984 11.9407 48.2132C12.1574 48.4134 12.3304 48.6568 12.4487 48.9278C12.567 49.1989 12.6281 49.4917 12.6281 49.7878C12.6281 50.0838 12.567 50.3767 12.4487 50.6477C12.3304 50.9188 12.1574 51.1621 11.9407 51.3623C11.7238 51.5731 11.4671 51.738 11.1859 51.8473C10.9046 51.9567 10.6045 52.0082 10.3031 51.9989ZM35.8379 51.6351H31.6819L20.7497 34.2641C20.4757 33.8334 20.2449 33.3765 20.0608 32.8998H19.9591C20.0789 33.9754 20.1242 35.058 20.0947 36.1399V51.6351H16.413V28H20.84L31.4673 44.9618C31.9191 45.6667 32.2014 46.0987 32.3369 46.417H32.3934C32.2656 45.3611 32.2127 44.2973 32.2353 43.2338V28H35.8944L35.8379 51.6351ZM53.727 51.6351H40.8749V28H53.2188V31.331H44.6695V38.027H52.575V41.3353H44.6695V48.3269H53.7044L53.727 51.6351ZM72 31.331H65.4158V51.6351H61.6099V31.331H55.0483V28H71.9887L72 31.331Z" fill="white"/>
</svg>

<svg xmlns="http://www.w3.org/2000/svg" viewBox="0 0 80 80">
  <rect width="100%" height="100%" fill="#512BD4"/>
  <path fill="#fff" d="M10.3 52A2.2 2.2 0 0 1 8 49.8a2.2 2.2 0 0 1 .7-1.6 2.3 2.3 0 0 1 1.6-.6 2.2 2.2 0 0 1 1.6.6 2.1 2.1 0 0 1 0 3.2 2.3 2.3 0 0 1-1.6.6Zm25.5-.4h-4.1l-11-17.3-.6-1.4H20c0 1 .1 2.2 0 3.2v15.5h-3.6V28h4.4l10.7 17 .8 1.4V28h3.6v23.6Zm18 0h-13V28h12.4v3.3h-8.5V38h7.9v3.3h-8v7h9.1v3.3ZM72 31.3h-6.6v20.3h-3.8V31.3H55V28h17v3.3Z"/>
</svg>
